;FLAVOR:Marlin
M105
M109 S0
M82 ;absolute extrusion mode
G92 E0 ;Reset Extruder
M92 E1 ;Steps per mm
G92 E0
M107
G1 F300 Z12
G1 F1200

G1 X84.0 Y149.0
G1 Z2
G1 X129.4 Y156.62
G1 F300 Z12
G1 F1200
G1 X83.53999999999999 Y151.29
G1 Z2
G1 X125.0 Y171.2
G1 F300 Z12
G1 F1200
G1 X82.24000000000001 Y153.24
G1 Z2
G1 X116.5 Y183.9
G1 F300 Z12
G1 F1200
G1 X80.28999999999999 Y154.54
G1 Z2
G1 X104.7 Y193.6
G1 F300 Z12
G1 F1200
G1 X78.0 Y155.0
G1 Z2
G1 X70.4 Y200.4
G1 F300 Z12
G1 F1200
G1 X75.8 Y154.54
G1 Z2
G1 X56.0 Y196.0
G1 F300 Z12
G1 F1200
G1 X73.8 Y153.24
G1 Z2
G1 X44.0 Y187.5
G1 F300 Z12
G1 F1200
G1 X72.5 Y151.29
G1 Z2
G1 X34.0 Y175.7
G1 F300 Z12
G1 F1200
G1 X72.0 Y149.0
G1 Z2
G1 X27.0 Y141.4
G1 F300 Z12
G1 F1200
G1 X72.5 Y146.8
G1 Z2
G1 X31.0 Y127.0
G1 F300 Z12
G1 F1200
G1 X73.8 Y144.8
G1 Z2
G1 X40.0 Y115.0
G1 F300 Z12
G1 F1200
G1 X75.8 Y143.5
G1 Z2
G1 X52.0 Y105.0
G1 F300 Z12
G1 F1200
G1 X78.0 Y143.0
G1 Z2
G1 X85.62 Y98.0
G1 F300 Z12
G1 F1200
G1 X80.28999999999999 Y143.5
G1 Z2
G1 X100.2 Y102.0
G1 F300 Z12
G1 F1200
G1 X82.24000000000001 Y144.8
G1 Z2
G1 X112.9 Y111.0
G1 F300 Z12
G1 F1200
G1 X83.53999999999999 Y146.8
G1 Z2
G1 X122.6 Y123.0

G4 P3000 ;manually added pause at centre

G1 Z30