;FLAVOR:Marlin
M105
M109 S0
M82 ;absolute extrusion mode
G92 E0 ;Reset Extruder
M92 E1 ;Steps per mm
G92 E0
M107
G1 F300 Z12
G1 F1200

G1 X51.81671052631579 Y63.0
G1 Z2
G1 X52.574868421052635 Y70.0866923076923
G1 X52.574868421052635 Y70.0866923076923
G1 X52.195789473684215 Y77.17338461538462
G1 X52.195789473684215 Y77.17338461538462
G1 X50.67947368421053 Y84.26007692307692
G1 X50.67947368421053 Y84.26007692307692
G1 X48.405 Y91.34676923076923
G1 X48.405 Y91.34676923076923
G1 X43.09789473684211 Y101.97680769230769
G1 X43.09789473684211 Y101.97680769230769
G1 X37.790789473684214 Y123.23688461538461
G1 X37.790789473684214 Y123.23688461538461
G1 X34.0 Y130.32357692307693

G1 F300 Z12
G1 F1200
G1 X55.228421052631575 Y151.58365384615382
G1 F300 Z2
G1 F1200

G1 X57.12381578947368 Y130.32357692307693
G1 X57.12381578947368 Y130.32357692307693
G1 X58.64013157894737 Y105.52015384615385
G1 X58.64013157894737 Y105.52015384615385
G1 X59.01921052631579 Y63.0

G1 F300 Z12
G1 F1200
G1 X73.8032894736842 Y155.127
G1 F300 Z2
G1 F1200

G1 X75.3196052631579 Y140.95361538461538
G1 X75.3196052631579 Y140.95361538461538
G1 X75.69868421052632 Y130.32357692307693
G1 X75.69868421052632 Y130.32357692307693
G1 X75.3196052631579 Y123.23688461538461
G1 X75.3196052631579 Y123.23688461538461
G1 X74.18236842105263 Y116.15019230769231
G1 X74.18236842105263 Y116.15019230769231
G1 X70.39157894736843 Y101.97680769230769
G1 X70.39157894736843 Y101.97680769230769
G1 X69.25434210526316 Y98.43346153846153
G1 X69.25434210526316 Y98.43346153846153
G1 X68.49618421052631 Y91.34676923076923
G1 X68.49618421052631 Y91.34676923076923
G1 X68.49618421052631 Y77.17338461538462
G1 X68.49618421052631 Y77.17338461538462
G1 X69.25434210526316 Y63.0

G1 F300 Z12
G1 F1200
G1 X76.45684210526315 Y63.0
G1 F300 Z2
G1 F1200

G1 X75.69868421052632 Y73.63003846153846
G1 X75.69868421052632 Y73.63003846153846
G1 X76.83592105263159 Y84.26007692307692
G1 X76.83592105263159 Y84.26007692307692
G1 X78.73131578947368 Y91.34676923076923
G1 X78.73131578947368 Y91.34676923076923
G1 X79.48947368421054 Y98.43346153846153
G1 X79.48947368421054 Y98.43346153846153
G1 X87.07105263157895 Y112.60684615384615
G1 X87.07105263157895 Y112.60684615384615
G1 X87.07105263157895 Y119.69353846153845
G1 X87.07105263157895 Y119.69353846153845
G1 X87.07105263157895 Y126.78023076923077
G1 X87.07105263157895 Y126.78023076923077
G1 X90.86184210526315 Y140.95361538461538
G1 X90.86184210526315 Y140.95361538461538
G1 X90.86184210526315 Y151.58365384615382

G1 F300 Z12
G1 F1200
G1 X106.025 Y133.86692307692306
G1 F300 Z2
G1 F1200

G1 X98.44342105263158 Y116.15019230769231
G1 X98.44342105263158 Y116.15019230769231
G1 X94.65263157894736 Y105.52015384615385
G1 X94.65263157894736 Y105.52015384615385
G1 X90.86184210526315 Y98.43346153846153
G1 X90.86184210526315 Y98.43346153846153
G1 X87.07105263157895 Y91.34676923076923
G1 X87.07105263157895 Y91.34676923076923
G1 X83.28026315789474 Y84.26007692307692
G1 X83.28026315789474 Y84.26007692307692
G1 X83.28026315789474 Y73.63003846153846
G1 X83.28026315789474 Y73.63003846153846
G1 X83.28026315789474 Y63.0

G1 Z30