;FLAVOR:Marlin
M105
M109 S0
M82 ;absolute extrusion mode
G92 E0 ;Reset Extruder
M92 E1 ;Steps per mm
G92 E0
M107
G1 F300 Z12
G1 F1200

G1 X31.740000000000002 Y98.8G1 Z2
G1 E0
G1 X31.91 Y100.9 E1.053434857976519
G1 X31.91 Y100.9 E1.053434857976519
G1 X31.8 Y102.9 E2.0549462158751703
G1 X31.8 Y102.9 E2.0549462158751703
G1 X31.43 Y104.7 E2.9737633902901885
G1 X31.43 Y104.7 E2.9737633902901885
G1 X30.8 Y106.6 E3.9746255186575237
G1 X30.8 Y106.6 E3.9746255186575237
G1 X29.45 Y109.7 E5.665224524927199
G1 X29.45 Y109.7 E5.665224524927199
G1 X27.1 Y115.1 E8.609817026445867
G1 X27.1 Y115.1 E8.609817026445867
G1 X26.4 Y117.0 E9.6222398630117
G1 F300 Z12
G1 F1200
G1 E6.6222398630117
G1 X32.6 Y123.9G1 Z2
G1 E9.6222398630117
G1 X33.16 Y117.3 E12.934097347868201
G1 X33.16 Y117.3 E12.934097347868201
G1 X33.519999999999996 Y110.4 E16.388789808855137
G1 X33.519999999999996 Y110.4 E16.388789808855137
G1 X33.69 Y98.7 E22.239407297633566
G1 X37.519999999999996 Y124.9 E35.47863782663335
G1 X37.97 Y120.8 E37.54094842399739
G1 X37.97 Y120.8 E37.54094842399739
G1 X38.07 Y117.4 E39.24168355916688
G1 X38.07 Y117.4 E39.24168355916688
G1 X37.93 Y115.5 E40.194259015495675
G1 X37.93 Y115.5 E40.194259015495675
G1 X37.65 Y113.7 E41.10508281843453
G1 X37.65 Y113.7 E41.10508281843453
G1 X36.67 Y109.9 E43.067249987663494
G1 X36.67 Y109.9 E43.067249987663494
G1 X36.36 Y108.1 E43.980499679697395
G1 X36.36 Y108.1 E43.980499679697395
G1 X36.16 Y106.1 E44.98548724180949
G1 X36.16 Y106.1 E44.98548724180949
G1 X36.1 Y102.7 E46.68575192708646
G1 X36.1 Y102.7 E46.68575192708646
G1 X36.31 Y98.7 E48.68850628047082
G1 X38.26 Y98.7 E49.66350628047081
G1 X38.09 Y101.3 E50.96628216296173
G1 X38.09 Y101.3 E50.96628216296173
G1 X38.36 Y104.0 E52.32301537181306
G1 X38.36 Y104.0 E52.32301537181306
G1 X38.86 Y106.0 E53.35379177821747
G1 X38.86 Y106.0 E53.35379177821747
G1 F300 Z12
G1 F1200
G1 E50.35379177821747
G1 X39.5 Y108.1G1 Z2
G1 E53.35379177821747
G1 X39.5 Y108.1 E53.35379177821747
G1 X41.0 Y112.5 E55.67811963805136
G1 X41.0 Y112.5 E55.67811963805136
G1 X41.4 Y114.3 E56.60007408378065
G1 X41.4 Y114.3 E56.60007408378065
G1 X41.7 Y116.1 E57.51248846332538
G1 X41.7 Y116.1 E57.51248846332538
G1 X42.0 Y120.6 E59.76748292008132
G1 X42.0 Y120.6 E59.76748292008132
G1 X42.3 Y123.6 E61.27496426324945
G1 X46.5 Y118.4 E64.61711925666313
G1 X44.9 Y113.8 E67.05227838904032
G1 F300 Z12
G1 F1200
G1 E64.05227838904032
G1 X44.9 Y113.8G1 Z2
G1 E67.05227838904032
G1 X43.2 Y110.1 E69.08820569619056
G1 X43.2 Y110.1 E69.08820569619056
G1 X42.2 Y108.1 E70.20623968494046
G1 X42.2 Y108.1 E70.20623968494046
G1 X41.4 Y106.1 E71.28327264636735
G1 X41.4 Y106.1 E71.28327264636735
G1 X40.9 Y104.0 E72.36262430361349
G1 X40.9 Y104.0 E72.36262430361349
G1 X40.6 Y101.7 E73.5223656540878
G1 X40.6 Y101.7 E73.5223656540878
G1 X40.6 Y98.6 E75.0723656540878

G1 Z30